X: 177
T: Petar's Hornpipe
%%VWML:Wrights-3753-p89-0
F: http://www.vwml.org/record/Wrights/3753/p89
%R: triple hornpipe
B: Daniel Wright "Wright's Compleat Collection of Celebrated Country Dances" 1740 p.89
S: http://library.efdss.org/cgi-bin/dancebooks.cgi
Z: 2014 John Chambers <jc:trillian.mit.edu>
M: 3/2
L: 1/8
K: G
%-------------------------
|:\
G4 BcdF G4 | (ed)(cB) (AB)(cG) F2A2 |\
(dc)(BA) (GA)(GF) E2A2 | (cB)(AG) (DG)(FA) G4 :|\
g4 (ba)(gf) (eg)(ec) | A4 (gb)(ag) (fe)(fg) |
F2G2 e3d (cB)(AG) | (cB)(AG) (FD)(EF) (GA)(Bc) |\
(GA)(Bc) d2G2 F2G2 | ABcd e2A2 ^G2A2 |\
b3a (gfed) (cBAG) | (cBAG) (DG)(AF) G4 |]
%-------------------------
%%center The 1st strain twice, the last but once.
%%begintext align
%% The 1st Cu. figure through the 2d Cu. .| then
%% cast off and turn his partner in 2d Cu. place :|
%% then the 1st Man change places with the 3d Wo.
%% and the 1st Wo. with the 3d Man and go quite
%% round, and cast of below the 3d Cu. and lead
%% quite through the top, and cast off, then right and
%% left quite round with the top Cu. into the 2d Cu place .|
%%endtext
%-------------------------
%%sep 2 4 300
T: Festing's Maggot
T: Longways &c.
%R: march, reel
B: Daniel Wright "Wright's Compleat Collection of Celebrated Country Dances" 1740 p.89
S: http://library.efdss.org/cgi-bin/dancebooks.cgi
Z: 2014 John Chambers <jc:trillian.mit.edu>
N: The 2nd strain has initial repeat but no final repeat; fixed to match the dance. M: 2/4
L: 1/8
K: G
%-------------------------
|:\
G2 d2 | B3 A | ((3GAB) AG | F3 A |\
(Gd) g2 | (A^c) a2 | (fd) (A^c) | d2 D2 :|\
|:\
dABc | B3 A | Gc eG | F3 D |\
GD B2 | AD c2 | BG DF | G2 G,2 :| %-------------------------
%%begintext align
%% The 1st Wo. go within-side of the 2d Wo. then %% go round about her and stand below the 3d
%% Wo. .| the 1st Man do the same :| the 1st Cu. %% being below the 3d Cu. cross over above the 3d %% Cu. and so above the 2d Cu. into their own
%% places .| the 1st Man take hands with his partner %% and lead down the 2d Cu. into their own
%% places and cast off :|
%%endtext
%-------------------------
%%sep 2 4 300
